X:2
T:All The Way
C:Jimmy Van Heusen
L:1/8
M:C
I:linebreak $
K:B
"B" deed"E" dFGB |"A#ø" deed"D#7" d=G z2 |"D#m" a4"G#7" z2 g2 |"G#m" d4"C#7" z4 |$
"F#7" fggf"C#m" fcde |"Ao" fggf"F#7" fc z2 |"B" c4"G#m" z2 B2 |"F#m" f4"B7" z4 |$
"E" gg z2"E/D#" z2 =g^g |"C#m" a2 g2"C#m/B" f2 e2 |"A#m" d4"A7" z edc Ox///||
"G#m" B2"G7" z2"F#m" z2"F7" z2 |$"E" gg z2"E/D#" z2 =g^g |"C#m" a2 g2"C#m/B" f2 e2 |
"A#m" dc"A7"BA"G#m" B2"G7" cd |"C#ø" e2 =G2"C7""_D.C. al Coda" z4 ||O"G#m" B4"A#o" z4 ||$
"B" deed"E" dFGB |"Eb7" deed"G#7" df z2 |"Fø" g4"E7" z2 A2 |"D#ø" f4"D7" z4 |
"C#ø" e4"C7" z2 A2 |"B6" B8 |]

